X: 556
T: Abraham's
R: reel
M: 4/4
K: Dmajor
|:eAAA eAfA|~g3 g fdBd|eAAA eAfA|~g3 a ~f3 g|
eAAA eAfA|~g2 ge fdBd|~g3 e fdBd|defg gfef:|
|:eAAA fAAA|eAfA AAeA|eAAA fAAA|ggfg edBd|
eAAA fAAA|eAfA AAgf|eAAA fAAA|~g3 a ~f3 g:|
|:eAAA eAfA|~g3 g fdBd|eAAA eAfA|~g3 a ~f3 g|
eAAA eAfA|~g2 ge fdBd|~g3 e fdBd|defg gfef:|
|:eAAA fAAA|eAfA AAeA|eAAA fAAA|ggfg edBd|
eAAA fAAA|eAfA AAgf|eAAA fAAA|~g3 a ~f3 g:|

